X: 23147
T: Le 24 Juin
R: reel
M: 4/4
K: Gminor
A2|:DGGA B2Bd|d^cde d2A2|DGGA B2Bd|d^cde d2d2|
dccB c2c2|cBBA B2B2|BAGA BAGA|d2c2 B2A2|
G2GA B2Bd|d^cde d2A2|DGGA BABd|d^cde d2d2|
dccB c2c2|cBBA B2B2|BAGA dcBA|1 GGBd g2 F2:|2 GGBd g4||
K:Gmaj
|:B2dB A2BA|GABG E2D2|GBAG B2cB|ABcA F2AB|
c2ec B2dB|ABcA F2 E2|DEFG ABcd|ed^ce d2GA|
B2dB A2BA|GABG E2D2|GBAG B2cB|ABcA F2AB|
c2ec B2dB|ABcA F2 E2|fgfe dcBA|1 GGBd g4:|2 GGBd g2 A2||

